X:1
T:Title
%%score { 1 | 2 }
L:1/8
M:4/4
K:A
V:1 treble nm="Grand Piano"
V:2 bass 
V:1
 z4 z2[Q:1/4=106] EE | [CA]2 [EA][EA] AGFE | [CA]2 [EA][EA] AGFE | A2 [FA]>[FB] [Ec]2 [EB]2 | %4
[M:3/4] [Ec]6 |[M:1/4] EE |[M:4/4] [CA]2 [EA][EA] AGFE | [CA]2 [EA][EA] AGFE | %8
 A2 [FA]>[FB] [Ec]2 [EB]2 | [CA]6 z2 | B2 B2 B2 c2 | [CA]2 [CA]2 [CA]4 | B2 B2 B2 c2 | %13
 [CA]2 [CA]2 [CA]4 | [Fd]2 [Fd]2 d2 d2 | c2 c2 c4 | B2 [Ge]2 e2 [F^d]2 |[M:3/4] [Ge]6 |[M:1/4] ed | %19
[M:4/4] c2 c2 c2 [Ec]2 | cBBB B2 E2 | EEEE F2 B2 | BAAA A2 ed | c2 c2 c2 c2 | %24
[M:9/8] [Fc][FB][FB] [FB] [Fd]2- [Fd][Fc][B,FB] |[M:4/4] [CEA]2 [EAc]>[EAc] [DGB]3 [B,EG] | %26
[M:3/4] [A,CEA]6 |] %27
V:2
 z4 z2 E,E, | [A,,E,]2 [C,A,][C,A,] [E,B,D]2 [E,B,D]2 | [A,,A,]2 [C,A,][C,A,] [E,B,D]2 [E,B,D]2 | %3
 [F,A,C]2 [D,A,]>[D,A,] [E,A,]2 [E,G,]2 |[M:3/4] [A,,A,]6 |[M:1/4] E,E, | %6
[M:4/4] [A,,E,]2 [C,A,][C,A,] [E,B,D]2 [E,B,D]2 | [A,,A,]2 [C,A,][C,A,] [E,B,D]2 [E,B,D]2 | %8
 [F,A,C]2 [D,A,]>[D,A,] [E,A,]2 [E,G,]2 | [A,,A,]6 z2 | [E,G,D]2 [E,G,D]2 [E,G,D]2 [E,G,E]2 | %11
 [A,,A,]2 [A,,A,]2 [A,,A,]4 | [E,G,D]2 [E,G,D]2 [E,G,D]2 [E,G,E]2 | [A,,A,]2 [A,,A,]2 [A,,A,]4 | %14
 [D,A,]2 [D,A,]2 [F,A,F]2 [G,B,E]2 | [A,CE]2 [A,E]2 [A,E]4 | [G,B,E]2 [E,B,]2 [B,G]2 [B,,B,]2 | %17
[M:3/4] [E,B,]6 |[M:1/4] [E,CE][E,B,E] |[M:4/4] [A,E]2 [A,E]2 [A,E]2 [A,,A,]2 | %20
 [E,A,E][E,G,D][E,G,D][E,G,D] [E,G,D]2 E,2 | E,E,E,E, F,2 [E,G,D]2 | %22
 [E,G,D][A,C][A,C][A,C] [A,C]2 [E,CE][E,B,E] | [A,E]2 [A,E]2 [A,E]2 [A,CE]2 | %24
[M:9/8] [D,D][D,D][D,D] [D,D] [D,D]2- [D,D][D,A,]D, |[M:4/4] E,2 E,>E, E,3 E, |[M:3/4] A,,6 |] %27

